X: 1
T:The Flurry Reel
B:Joyce, P. W.; "Old Irish Folk Music and Songs"
R:reel
H:Written from memory.
L:1/8
M:C
K:G
Ad d2 cAGE|ABGA EG G2|Ad d2 cAGE|ABGA E2 D2:|
edcd eg g2|eaag eg g2|edcd eg g2|eaag e2 d2|
edcd eg g2|eaag efgf|edcB cdef|(3gfg ag e2 d2||
